X: 1804
T: The Green Flag Flying
M:2/4
L:1/16
B:O'Neill's 1804
N:"collected by F. O'Neill"
Z:"Transcribed by Bob Safranek, rjs@gsp.org"
K:G
   (GE) | D2DE G2GB | A2GA BAGE | D2c2 BcdB | G3A BAGE |
          D2DE G2GB | A2GA BAGE | D2c2 BcdB | G4 G2   :|
|:  A2  | B2d2 efge | d2B2 A2G2 | B2d2 efge | d3B A3A  |
          B2d2 efge | d3B  A2GE | DEGA BGAF | G4 G    :|


